cps (100/60/4)

d1 $ sound "gabba gabba gabba gabba"

d2 $ sound "[arpy*2] arpy:1 arpy:2 arpy:3"

d1 silence

d2 silence

d3 $ s "[bd bd bd[sn sn], sn hh sn mt, arpy [arpy arpy:2] arpy, odx]"

d3 silence

d4 $ sound "arpy*12"
# up "0 1 2 3 4 5 6 7 8 9 10 11"

d4 silence

d5 $ sound "arpy:2*2"
#speed "1.5 2"

d5 silence

d6 $ s "arpy*8"
# up (run 8)

d6 silence

d7 $ s $ samples "arpy*4" "0 1 2 3"

d7 silence

d8 $ s "amencutup*4" # n (irand 20)

d8 silence
