bps (180/60)

d1 $ slow 16 $ jux (rev) $ cat [
n "[[c5 c5 g5 g5 a5 a5 [g5] ~ ][f5 f5 e5 e5 d5 d5 [c5] ~ ], [[c5, e5, g5] [f5, a5, c5] [f5, a5, c5][g5, b5, d5]]] ",
n "[[g5 g5 f5 f5 e5 e5 [d5] ~ ][g5 g5 f5 f5 e5 e5 [d5] ~ ], [[c5, e5, g5] [c5, e5, g5] [f5, a5, c5][g5, b5, d5]]] "
] # s "superpiano" # vowel "a o i"

d1 silence

d2 $ loopAt 2 $ chop "32" $ s "breaks165" # crush "4"

d2 silence


d3 $ every 2 (striate 2) $ every 3 (chop 16) $ every 4 (|*| speed "6") $ s "arpy*4" # n (irand 10) # speed "-1 -0.8 0.6 -0.5" # gain "0.8 0.7 -1 0.9" # accelerate "-1" # coarse "20 40 80 100"

d3 silence

hush
