d1 $ s "[bd*4, future*2] [sn*4[cp hh]]"

d1 silence

d2 $ s "[bd*3, sn cp sn cp, arpy*2, odx]"

d2 silence

d3 $ s "bd/2"

d3 silence

d4 $ s "[bd sn]*2 cp"

d4 silence

d5 $ s "[[bd sn] cp]/2 [bd sn*3 bd*4]/3"

d5 silence

d6 $ slow 2 $ s "bd*2 [bd [sn sn*2 sn] sn]"

d6 silence

d7 $ slow 2 $ every 4 (slow 2) $ s "bd*2 arpy*3"

d7 silence

d8 $ s "arpy*8 sn bd" -- # delay "0.75"

d8 silence

d9 $ gain "1 0.8 0.6 0.7" # s "bd"

d9 silence
