d1 $ s "bass*4 hh*4"
# gain (every 4 (rev) $ "[1 -0.4 -2.5 1.5][0.4]")

d1 silence

d2 $ every 4 (rev) $ (|*| speed "1.5") $ s "blip*4" |=| speed "0.6 0.2 0.3 0.8"

d2 silence

d3 $ every 3 (|-| up "3") $ every 2 (|+| up "2") $ s "arpy*4" |=| up (run 4)

d3 silence

d4 $ up "0 0*2 0*4 1" # s "[ ~ arpy:2,bass2, hh]"

d4 silence

d5 $ s "gabba*4"

d5 silence

d6 $ s "bd sn arpy drum" # pan "1 0.5 0.25 0.75"

d6 silence

d7 $ pan "1 0.5 0.25 0.75" # sound "bd sn arpy drum"

d7 silence

d8 $ up "0 0*2 0*4 1" # s "[arpy, bass2, bd]"

d8 silence

d9 $ s "[arpy*16 ,bd*16]" # speed (slow 1.75 $ sine1)

d9 silence
