d1 $ gain "2.2 0.5 -1 1.3" # s "bd hh"

d1 silence

d2 $ s "bd hh" # gain "3.2 0.5 -1 1.3"

d2 silence

d3 $ every 2 (|*| speed "1.5") $ s "arpy*4" |=| speed "1"

d3 silence

d4 $ every 4 (|-| up "-3") $ every 2 (|+| up "2") $ s "arpy" |=| speed "1"

d4 silence

d5 $ speed "[1 2 3]" # s "arpy*3"

d5 silence

d6 $ s "arpy*3" # up (run 3)

d6 silence

d7 $ speed (run 3) # s "arpy*3"

d7 silence

d8 $ s "arpy*8" # up (every 2 (rev) $ run 8)

d8 silence
