cps (40/60)

d1 $ s "arpy:0 arpy:1 arpy:2"

d1 silence

d2 $ n "0 1 2 3" # s "arpy"

d2 silence

d3 $ s $ samples "arpy*3" "0 1 2"

d3 silence

d4 $ n (run 4) # s "arpy"

d4 silence


d5 $ s "bd arpy cp hh" # n (run 10)

d5 silence

d6 $ n (run 10) # s "bd arpy cp hh"

d6 silence

d7 $ s "bd*8" # speed (density 1.7 $ tri1)

d7 silence

d8 $ s "arpy*4" # speed (scale 2 3 $ sine1)

d8 silence

d9 $ every 2 (0.25 <~) $ s "bd cp"

d9 silence
