---[histpan]
-- Pans the last n versions of the pattern across the field

-- フィールドの最後のnバージョンのパターンをパンします。

--- [jump]
--Jumps directly into the given pattern, this is essentially the no transition-transition.
--Variants of jump provide more useful capabilities, see jumpIn and jumpMod

--与えられたパターンに直接ジャンプしますが、これは基本的に遷移のない遷移です。
--ジャンプのバリエーションはより有用な機能を提供します。jumpInとjumpModを参照してください

---[jumpIn]
-- Does a sharp “jump” cut transition after the specified number of cycles have passed.

-- 指定されたサイクル数が経過すると、シャープな "ジャンプ"がトランジションをカットしますか？

---[jumpIn']
--Does a sharp “jump” cut transition after at least the specified number of cycles have passed, but only transitions at a cycle boundary (e.g. when the cycle count is an integer)

-- 少なくとも指定された数のサイクルが経過した後にシャープな「ジャンプ」遷移が切断されるが、サイクル境界でのみ遷移する（例えば、サイクル数が整数である場合）

--- [jumpMod]
--Does a sharp “jump” cut transition the next time the cycle count modulo the given integer is zero.

--与えられた整数を法とするサイクルカウントがゼロであるときに、鋭い「ジャンプ」が次の時にトランジションをカットしますか？

--- [mortal]
--- Degrade the new pattern over time until it ends in silence

--音で終了するまで時間の経過とともに新しいパターンを劣化させる

--- [superwash]
--A generalization of wash. Washes away the current pattern after a certain delay by applying a function to it over time, then switching over to the next pattern to which another function is applied.

--wash の一般化。 時間の経過とともに関数を適用し、次に別の関数が適用される次のパターンに切り替えることによって、ある遅延後に現在のパターンを洗い流します。

d1 $ s "feel*4 [feel:2 sn:2]"

t1 (superwash (# accelerate "4 2 -2 4") (striate 2) 1 4 6) $ s "bd [odx:2 sn/2]"

d1 silence

hush

--Note that after one cycle # accelerate "4 2 -2 -4" is applied to sound "feel*4 [feel:2 sn:2]" for 4 cycles and then the whole pattern is replaced by sound "bd [odx:2 sn/2]" and striate 2 is applied to it for 6 cycles. Afterwards sound "bd [odx:2 sn/2]" is played normally.

-- なお、1サイクル後に加速すると、「feel * 4 [feel：2 sn：2]」を4サイクル発音した後、全体のパターンが音「bd [odx：2 sn / 2]」およびstriate 2を6サイクル適用する。 その後、sound "bd [odx：2 sn / 2]"が正常に再生されます。


---[wait]
--Just stop for a bit before playing new pattern

-- 新しいパターンを演奏する前に少しだけやめてください

---[wash]
--Wash away the current pattern by applying a function to it over time, then switching over to the next.

--現在のパターンを時間の経過と共に関数に適用し、次のパターンに切り替えることによって、現在のパターンを洗い流す。

d2 $ s "feel ! feel:1 feel:2"

t2 (wash (chop 8) 4) $ s "feel*4 [feel:2 sn:2]"

-- Note that chop 8 is applied to sound "feel ! feel:1 feel:2" for 4 cycles and then the whole pattern is replaced by sound "feel*4 [feel:2 sn:2]

-- なお、chop 8は「feel！feel：1 feel：2」を4サイクル適用した後、全体のパターンが「feel * 4 [feel：2 sn：2]

---[xfade]
--Crossfade between old and new pattern over the next two cycles.

--次の2つのサイクルにわたって古いパターンと新しいパターンとの間のクロスフェード。

d3 $ s "bd sn"

t3 xfade $ s "can*3"

d3 silence

-- xfade is essentially xfadeIn 2 so you can also specify how many cycles you want the transition to take:

-- xfadeは基本的にxfadeIn 2なので、トランジションに必要なサイクル数を指定することもできます：

---[xfadeIn]
--crossfades between old and new pattern over given number of cycles, e.g.:

-- 所定のサイクル数にわたって古いパターンと新しいパターンとの間でクロスフェードする。

d4 $ s "bd sn"

t4 (xfadeIn 2) $ s "jvbass*3"

hush

-- Will fade over 16 cycles from “bd sn” to “jvbass*3”

-- 「bd sn」から「jvbass * 3」まで16サイクルにわたってフェードします

----[[Synth Parameters]]
-- In general, synth parameters specify patterns of sounds, and patterns of effects on those sounds. These are synthesis parameters you can use with the default SuperDirt synth or Classic Dirt:

-- 一般的に、シンセパラメータは、音のパターンと、その音に対するエフェクトのパターンを指定します。 これらは、デフォルトのSuperDirtシンセまたはClassic Dirtで使用できる合成パラメーターです。

---[hcutoff]
-- a pattern of numbers. In SuperDirt, this is in Hz (try a range between 0 and 8000). In classic dirt, it is from 0 to 1. Sets the center frequency of the band-pass filter. Applies the cutoff frequency of the high-pass filter. Has the shorthand form hpf.

-- 数字のパターン。 SuperDirtでは、これはHz単位です（0〜8000の範囲で試してください）。 古典的な汚れでは、0から1までです。バンドパスフィルタの中心周波数を設定します。 ハイパスフィルタのカットオフ周波数を適用します。 hpfという略式形式をしています。

d5 $ s "bd sn arpy" # hcutoff "200 1000"

d5 silence

--- [bandf]
--a pattern of numbers. In SuperDirt, this is in Hz (try a range between 0 and 6000). In classic dirt, it is from 0 to 1. Sets the center frequency of the band-pass filter. Has the shorthand bpf.

-- 数字のパターン。 SuperDirtでは、これはHz単位です（0〜6000の範囲で試してください）。 古典的な汚れでは、0から1までです。バンドパスフィルタの中心周波数を設定します。 略語はbpfです。

d6 $ s "feel [hh cp]" # bandf "200 600"

d6 silence

--- [bandq]
--a pattern of numbers that set the q-factor of the band-pass filter. Higher values (larger than 1) narrow the band-pass. Has the shorthand bpq.

--バンドパスフィルタのq因子を設定する数字のパターン。 値が大きいほど（1より大きい）、バンドパスが狭くなります。 省略形はbpqです。

d7 $ s "bd [sn hh*2]" # bandq "900"

d7 silence

--- [begin]
--a pattern of numbers from 0 to 1. Skips the beginning of each sample, e.g. 0.25 to cut off the first quarter from each sample.

-- In Classic Dirt, using begin "-1" combined with cut "-1" means that when the sample cuts itself it will begin playback from where the previous one left off, so it will sound like one seamless sample. This allows you to apply a synth param across a long sample in a way similar to chop:

-- 0から1までの数字のパターン。各サンプルの先頭をスキップします。 各サンプルから第1四半期を切り捨てるために0.25。

-- クラシックダートでは、 begin "-1"を cut "-1"と組み合わせて使用すると、サンプルがカットされるときに前のサンプルが再生された場所から再生が開始されるため、シームレスなサンプルのように聞こえるようになります。 これにより、chopと同様の方法で長いサンプルにシンセパラメータを適用することができます。

cps 0.5

d8 $ sound "breaks125*8" # unit "c" # begin "-1" # cut "-1" # coarse "1 2 4 8 16 32 64 128"

d8 silence

-- This will play the breaks125 sample and apply the changing coarse parameter over the sample. Compare to:

-- これにより、breaks125サンプルが再生され、サンプルに対して変化する粗いパラメータが適用されます。 比較する：

d9 $ (chop 8 $ s "breaks125") # unit "c" # coarse "1 2 4 8 16 32 64 128"

d9 silence

-- which performs a similar effect, but due to differences in implementation sounds different.

--同様の効果を発揮しますが、実装音の違いによって異なります。
