d1 $ every 5 (|+| speed "0.5") $ every 4 (0.25 <~) $ every 3 (rev) $
   sound "bd sn arpy*2 cp"
   # speed "[1 1.25 0.75 -1.5]/3"

d1 silence

d2 $ s "bd*2"

d2 silence

d3 $ n "c5 d5*2" # s "tutorial1" # gain 1

d3 silence

d4 $ midinote "60 60*2" # s "tutorial1"

d4 silence

d5 $ midinote (slow 2 $ (run 8) * 7 + 50) # s "supersaw" # decay "[1 0.2]/4"
  # voice "[0.5 0]/8" # sustain (slow 16 $ scale 5 0.5 $ saw1)

d5 silence

d6 $ n "<[a5,cs5,e5,g5] [d5,fs5,g5,c5]>" # s "superchip" # gain "0.8"

d6 silence

d7 $ n "<[c5, e5, g5]>" # s "supersaw" # gain 0.7

d7 silence

d7 $ slow 8 $ n "[[c5 c5 g5 g5 a5 a5 ] g5] [[f5 f5 e5 e5 d5 d5] c5]" # s "supersaw"

d7 silence

d8 $ slow 4 $ cat [
n "[[c5 c5 g5 g5 a5 a5 [g5] ~ ][f5 f5 e5 e5 d5 d5 [c5] ~ ], [[c5, e5, g5] [f5, a5, c5] [f5, a5, c5][g5, b5, d5]]] ",
n "[[g5 g5 f5 f5 e5 e5 [d5] ~ ][g5 g5 f5 f5 e5 e5 [d5] ~ ], [[c5, e5, g5] [c5, e5, g5] [f5, a5, c5][g5, b5, d5]]] "
] # s "superchip" # vowel "a e i"

d8 silence

d9 $ s "bd*2 cp/2 sn hh"

d9 silence
